!!!OTL: DES MORGENS ZWISCHENDREIN UND VIEREN
!!!ARE: Europa, Mitteleuropa, Deutschland
!!!SCT: F0580A
!!!YEM: Copyright 1995, estate of Helmut Schaffrath.
**kern
*ICvox
*Ivox
*M4/4
*k[b-e-a-]
*E-:
{8e-
8g
=1
8b-
8b-
8b-
8ee-
4g
4e-
=2
4cc
4b-
4r}
{8e-
8g
=3
8b-
8b-
8b-
8b-
8cc
8b-
8a-
8g
=4
4g
4f
4r}
{8e-
8g
=5
4.b-
8g
8a-
8g
8a-
8b-
=6
4g
2r}
{8ee-
8cc
=7
4.b-
8g
8b-
8a-
8g
8f
=8
4e-
8r}
{8e-
8b-
8b-
8b-
8b-
=9
8b-
8g
8a-
8f
8e-
8b-
8b-
8b-
=10
8b-
8g
8a-
8f}
{8ee-
8ee-
8dd
8cc
=11
4.b-
8g
8b-
8a-
8g
8a-
=12
4g
2r}
==
!!!AGN: Soldaten - Lied
!!!ONB: ESAC (Essen Associative Code) Database: FINK
!!!AMT: simple quadruple
!!!AIN: vox
!!!EED: Helmut Schaffrath
!!!EEV: 1.0
*-
